X:10
T:Ouvert est le tombeau - I298
C:J. Akepsimas
M:4/4
L:1/8
K:D
[P:Refrain]A,|"Re"DD "La"EE "Re"F4|"Sol"G2 FG "La"E3 A,|"La"EE "Si"FF "Mim"G4|
"La"A2 GA "Re"F3 D|"Sol"BB "Mim"AG "Fa#m"A3 D|"Mim"GG "La"FE "Re"F4|
"Sol"B2 AG "La     Si"A4|"Mim"G2 "La"FE "Re"D4-|[M:2/4]D2 [P:Couplets]zF||[M:4/4]
"Fa#"FGFE "Sim"D4|"Sim"zB, CD "Mi"EE DC|"Sim   Mi"D4 "Fa#"C2 zC|
"Sim"DD "La"EE "Re"F3 F|"Mim"GG "Fa#m"AA "Si"B2 FB|"Fa#m  Sol"A4 "La"A3 A,|
